components/ui-separator-icon/src/semicolon.svg

<svg width="16" height="16"  viewBox="0 0 16 16" fill="none" xmlns="http://www.w3.org/2000/svg">
  <path fill-rule="evenodd" clip-rule="evenodd" d="M8.5 6C9.88071 6 11 4.88071 11 3.5C11 2.11929 9.88071 1 8.5 1C7.11929 1 6 2.11929 6 3.5C6 4.88071 7.11929 6 8.5 6ZM10 3.5C10 4.32843 9.32843 5 8.5 5C7.67157 5 7 4.32843 7 3.5C7 2.67157 7.67157 2 8.5 2C9.32843 2 10 2.67157 10 3.5ZM11 10.4465H10C10 9.64761 9.32843 9 8.5 9C7.67157 9 7 9.64761 7 10.4465C7 11.2453 7.67157 11.8929 8.5 11.8929L8.5036 11.8929L8.51043 11.8929L8.5125 11.9388C8.52129 12.1323 8.52909 12.3043 8.51435 12.4873C8.51089 12.5301 8.5062 12.5735 8.5 12.618C8.48792 12.7046 8.47011 12.795 8.44451 12.8923C8.38629 13.1138 8.2878 13.3713 8.125 13.7009C8.50934 13.5712 9.10431 12.918 9.52068 12.1239C9.80005 11.591 9.99902 10.9946 9.99999 10.4504L11 10.4522C10.9983 11.3942 10.5865 12.3406 10.1485 13.0357C9.9218 13.3955 9.66429 13.7264 9.4013 13.9936C9.163 14.2358 8.83141 14.5179 8.44479 14.6484C8.06177 14.7777 7.6386 14.6637 7.37241 14.3594C7.10622 14.0552 7.04938 13.6206 7.22836 13.2582C7.35886 12.9939 7.42874 12.8096 7.46753 12.674C6.61341 12.2942 6 11.4564 6 10.4465C6 9.06138 7.15385 8 8.5 8C9.84615 8 11 9.06138 11 10.4465ZM9.99999 10.4504L10 10.4465L10.5 10.4472L10.5 10.4511L9.99999 10.4504Z" fill="currentColor"/>
</svg>

<svg xmlns="http://www.w3.org/2000/svg" width="16" height="16" fill="none" viewBox="0 0 16 16">
  <path fill="currentColor" fill-rule="evenodd" d="M8.5 6a2.5 2.5 0 1 0 0-5 2.5 2.5 0 0 0 0 5ZM10 3.5a1.5 1.5 0 1 1-3 0 1.5 1.5 0 0 1 3 0Zm1 6.947h-1C10 9.646 9.328 9 8.5 9S7 9.648 7 10.447c0 .798.672 1.446 1.5 1.446h.01l.002.046c.01.193.017.365.002.548a2.27 2.27 0 0 1-.07.405 4.328 4.328 0 0 1-.319.809c.384-.13.98-.783 1.396-1.577.279-.533.478-1.13.479-1.674l1 .002c-.002.942-.414 1.889-.851 2.584a5.76 5.76 0 0 1-.748.958c-.238.242-.57.524-.956.654a1 1 0 0 1-1.217-1.39c.13-.264.2-.448.24-.584C6.613 12.294 6 11.456 6 10.447 6 9.06 7.154 8 8.5 8S11 9.061 11 10.447Zm-1 .003v-.003h.5v.004H10Z" clip-rule="evenodd"/>
</svg>
